X: 63
T: FARMER HAYES
B: O'Neill's 63
M: 6/8
L: 1/8
Z: Transcribed by John Chambers <jc@trillian.mit.edu>
N: "Slow"
N: "Collected by F.O'Neill"
K:D
(D/E/) \
| (FEF) D2d | (A2G) E2E | D2D (DCD) | G2{AG}E C2(D/E/) \
| (FEF) D2d | (A2G) E2D | EFE D2D | D3- D2(D/E/) |
| (FEF) D2d | (A2G) E2E | D2D (DCD) | G2E C2(d/c/) \
| A2A (ABA) | G2E C2D | EFE D2D | D3- D2 ||
C \
| D2E F2G | A2A (ABc) | d2c BAG | A2F D2C \
| D2E F2G | A2A (ABc) | d2c BAG | A3 (ABc) |
| d2c B2d | c2B A2G | (FEF) (DFA) | G2E HC2 (D/E/) \
| (FEF) (DFA) | G2E C2D | (EFE) D2D | D3- D2 ||


